X: 11021
T: Dry And Dusty
R: reel
M: 4/4
K: Dmajor
|:dB|A2 d2 fded|f2 f2 edBd|A2 d2 fded|f2 a2 a2 aa|
A2 d2 fded|f2 a2 e f2 e|ddFG AFDE|F2 D2 D2:|
|:dB|A2 F2 FEDE|F2 A2 A2 dB|A2 F2 FEDE|F2 D2 D2 dB|
A2 F2 FEDE|F2 A2 A2 Bc|d2 d2 BAFG|A2 D2 D2:|

